**kern
*clefF4
*k[]
*M4/4
*^
2E 2G 2c	2C
=1	=1
1F 1A-X 1d	2BB
.	2BB-X
=	=
2E-X 2G 2e-X	2EE-X
=2||	=2||
2E 2G 2c	2C
=3	=3
2F 2A-X 2d	1BB
2F#X 2An 2d#X	.
=	=
2E 2G 2e	2EE
=4||	=4||
2E 2G 2c	2C
=5	=5
2F 2A-X 2d	2BB
2F#X 2An 2e-X	2C
=	=
2G 2B 2d	2BB
=6||	=6||
2E 2G 2c	2C
=7	=7
2F 2A-X 2d	2BB
2E 2G 2d-X	2BB-X
=8	=8
2F 2A 2c	2AA
*v	*v
==
*-
!!!system-decoration: [(s1
